X: 23560
T: Light And Airy
R: jig
M: 6/8
K: Cmajor
GEC CDC|GEC DGc|GEC CDE|D2E FED|
GEC CEG|cBA GEG|FAd EGc|D2E FED:|
~c3 cGE|cdc cGE|~c3 cGE|D2E FED|
cec BdB|AcA GEC|FAF EGE|D2E FED:|

